X:1
T:Title
%%score { ( 1 3 ) | ( 2 4 ) }
L:1/8
M:3/4
K:Eb
V:1 treble nm="Grand Piano"
V:3 treble 
V:2 bass 
V:4 bass 
V:1
 z2 z2 z[Q:1/4=94] G | GG B3 G | [EG]>[DF] [DF]3 [EG] | [FA][FA] [DB]3 [DF] |[M:5/8] [EA]2 [EG]3 | %5
[M:1/8] [GB] |[M:3/4] c>c e3 c | [Ac]>[GB] [GB]3 [GB] | [FB]3 [F=A] [Ad]>[Ac] |[M:5/8] B-B- B3 | %10
[M:1/8] B |[M:3/4] B6 | A6 | G3 G [EG][EF] |[M:3/8] [DF]3 | [FB][EB][DB] | %16
[M:3/4] [EB]3 [EG] [EA][EB] |[M:15/16] [Ec]3/2-[Ec]3/2- [Ec]3- [Ec]/ z | %18
[M:13/16] z/ z [G,E]<[G,E][B,EG][A,DF]>[G,B,E] |[M:5/8] [G,B,E]-[G,B,E]- [G,B,E]3 |] %20
V:2
 z2 z2 z [E,B,E] | [E,B,E][E,B,E] [E,G,E]3 [E,B,E] | [B,,B,]>[B,,B,] [B,,B,]3 [B,,B,] | %3
 [B,,B,][B,,B,] [B,,B,]3 [B,,B,] |[M:5/8] [E,C]2 [E,B,]3 |[M:1/8] [E,E] | %6
[M:3/4][K:treble] [A,EA]>[A,EA] [A,CA]3 [A,EA] | [E,E]>[E,E] [E,E]3 [E,E] | %8
 [F,D]3 [F,C] [F,F]>[F,E] |[M:5/8][K:treble] [B,DF]-[B,DF]- [B,DF]3 |[M:1/8] z | %11
[M:3/4] z z/[K:bass] [B,E]/ [B,E]4 | z z/ [B,D]/ [B,D]3 [B,D] | [E,B,E]3 [E,B,E] [C,=A,][C,A,] | %14
[M:3/8] [B,,B,]3 | [B,,A,][B,,G,][B,,F,] |[M:3/4] [E,G,]3 [D,B,] [C,A,][B,,G,] | %17
[M:15/16] [A,,A,]3/2-[A,,A,]3/2- [A,,A,]3- [A,,A,]/[K:treble]e | %18
[M:13/16] B/-B/-B/-B-<B[K:bass] z/ z/ z/ z/ z |[M:5/8] E,-E,- E,3 |] %20
V:3
 x6 | x6 | x6 | x6 |[M:5/8] x5 |[M:1/8] x |[M:3/4] x6 | x6 | x6 |[M:5/8] x5 |[M:1/8] x | %11
[M:3/4] z z/ G/ G3 G | z z/ F/ F3 F | x6 |[M:3/8] x3 | x3 |[M:3/4] x6 |[M:15/16] x15/2 | %18
[M:13/16] x13/2 |[M:5/8] x5 |] %20
V:4
 x6 | x6 | x6 | x6 |[M:5/8] x5 |[M:1/8] x |[M:3/4][K:treble] x6 | x6 | x6 |[M:5/8][K:treble] x5 | %10
[M:1/8] x |[M:3/4] x3/2[K:bass] x9/2 | x6 | x6 |[M:3/8] x3 | x3 |[M:3/4] x6 | %17
[M:15/16] x13/2[K:treble] x |[M:13/16] z/ z B,,<B,,[K:bass]B,,B,,>E, |[M:5/8] x5 |] %20

